!!!COM: Pallavicino, Benedetto
!!!CDT: ~1551-1601/11/26
!!!PTL: Il primo libro de madrigali a quattro voci
!!!PPP: Venice
!!!PPR: Angelo Gardano
!!!PDT: 1579
!!!PUB-format:
!!!RISM: P 772
!!!rime: 47
!!!OTL: Non è questa la mano
!!!AGN: Madrigal
!!!SCT: Trm0047a
!!!SCA: Trm0047a
!!!original-voices: 4
!!!extant-voices: 4
!!!complete: Y
!!!final: D
**kern	**text	**kern	**text	**kern	**text	**kern	**text
*part4	*part4	*part3	*part3	*part2	*part2	*part1	*part1
*staff4	*staff4	*staff3	*staff3	*staff2	*staff2	*staff1	*staff1
*Ivox	*	*Ivox	*	*Ivox	*	*Ivox	*
*I"Basso	*	*I"Tenore	*	*I"Alto	*	*I"Canto	*
*I'B	*	*I'T	*	*I'A	*	*I'C	*
*oclefF4	*	*oclefC4	*	*oclefC3	*	*oclefC1	*
*clefF4	*	*clefGv2	*	*clefGv2	*	*clefG2	*
*k[]	*	*k[]	*	*k[]	*	*k[]	*
*omet(C|)	*	*omet(C|)	*	*omet(C|)	*	*omet(C|)	*
*M2/1	*	*M2/1	*	*M2/1	*	*M2/1	*
=1	=1	=1	=1	=1	=1	=1	=1
0r	.	0r	.	1r	.	2r	.
.	.	.	.	.	.	2a	Non
.	.	.	.	2r	.	2d	&egrave;
.	.	.	.	2d	Non	2d	que-
=2	=2	=2	=2	=2	=2	=2	=2
0r	.	1r	.	2A	&egrave;	2e	-sta
.	.	.	.	2A	que-	2f#X	la
.	.	2r	.	2B	-sta	2g	ma-
.	.	2A	Non	2c#X	la	2e	-no,
=3	=3	=3	=3	=3	=3	=3	=3
2r	.	2D	&egrave;	1d	ma-	1r	.
2D	Non	2D	que-	.	.	.	.
2AA	&egrave;	2E	-sta	1c#X	-no,	2r	.
2AA	que-	2F#X	la	.	.	2a	<Non
=4	=4	=4	=4	=4	=4	=4	=4
2BB	-sta	1G	ma-	1r	.	2d	&egrave;
2C	la	.	.	.	.	2e	que-
2D	ma-	1Fni	-no,	1a	Non	4f	-sta
.	.	.	.	.	.	4d	la
2D	-no,	.	.	.	.	[2dd	ma-
=5	=5	=5	=5	=5	=5	=5	=5
2r	.	1r	.	2d	&egrave;	4dd]	.
.	.	.	.	.	.	8cc#iL	.
.	.	.	.	.	.	8bJ	.
2A	<Non	.	.	2e	que-	2cc#X	.
2D	&egrave;	2A	Non	2f	-sta	4dd	-no,>
.	.	.	.	.	.	4dd	Non
2E	que-	2e	&egrave;	2g	la	4b	&egrave;
.	.	.	.	.	.	[4ccni	que-
=6	=6	=6	=6	=6	=6	=6	=6
2F	-sta	2c	que-	1f	ma-	4cc]	.
.	.	.	.	.	.	2a	-sta
2D	la	4d	-sta	.	.	.	.
.	.	4d	la	.	.	4b	la
1E	ma-	1B	ma-	1e	-no	4g#X	ma-
.	.	.	.	.	.	2a	.
.	.	.	.	.	.	4g#X	.
=7	=7	=7	=7	=7	=7	=7	=7
2AA	-no>	2A	-no	2r	.	2a	-no
2AA	Che	2c	Che	2e	Che	2a	Che
2D	tan-	2A	tan-	2d	tan-	2f	tan-
4F	-t'e	4A	-t'e	4c	-t'e	4f	-t'e
[4BB-	s&igrave;	[4B-	s&igrave;	[4d	s&igrave;	[4f	s&igrave;
=8	=8	=8	=8	=8	=8	=8	=8
4BB-]	.	4B-]	.	4d]	.	4f]	.
4FF	mor-	4A	mor-	4c	mor-	4f	mor-
2C	-ta-	2G	-ta-	2c	-ta-	2e	-ta-
1FF	-li	1A	-li	2c	-li	1f	-li
.	.	.	.	2A	A-	.	.
=9	=9	=9	=9	=9	=9	=9	=9
2A	A-	2A	A-	4c	-ven-	2r	.
.	.	.	.	4B	-t&ograve;	.	.
4F	-ven-	4c	-ven-	4A	nel	2a	A-
4G	-t&ograve;	4B	-t&ograve;	4G	mio	.	.
4A	nel	4A	nel	2.F	cuor	4cc	-ven-
4B	mio	4G	mio	.	.	4b	-t&ograve;
[2c	cuor	[2F	cuor	.	.	4a	nel
.	.	.	.	4G	fa-	4g	mio
=10	=10	=10	=10	=10	=10	=10	=10
4c]	.	4F]	.	4A	-cel-	2.f	cuor
4B	fa-	4G	fa-	4B	-li e	.	.
4A	-cel-	4A	-cel-	2c	stra-	.	.
4G	-li e	4B	-li e	.	.	4g	fa-
2F	stra-	2c	stra-	2A	-li,	4a	-cel-
.	.	.	.	.	.	4b	-li e
2F	-li,	2A	-li,	4r	.	2cc	stra-
.	.	.	.	4F	fa-	.	.
=11	=11	=11	=11	=11	=11	=11	=11
2r	.	4r	.	4.A	-cel-	4cc	-li,
.	.	4c	fa-	.	.	4ee	fa-
.	.	.	.	8BL	.	.	.
2C	fa-	8cL	-cel-	8c	.	8eeL	-cel-
.	.	8B	.	8dJ	.	8dd	.
.	.	8A	.	4e	.	8cc	.
.	.	8GJ	.	.	.	8bJ	.
8DL	-cel-	8FL	.	4f	.	2.a	.
8E	.	8G	.	.	.	.	.
8F	.	8A	.	4f	.	.	.
8GJ	.	8BJ	.	.	.	.	.
4A	.	4c	.	4e	.	.	.
4B	-li e	4d	-li e	4d	-li e	4g	-li e
=12	=12	=12	=12	=12	=12	=12	=12
2A	stra-	2e	stra-	2c#X	stra-	2a	stra-
2D	-li?	2f	-li?	2d	-li?	2a	-li?
1G	Ec-	2r	.	[1d	Ec-	2r	.
.	.	[2B-	Ec-	.	.	[2g	Ec-
=13	=13	=13	=13	=13	=13	=13	=13
1D	-co	2B-]	.	1d]	.	2g]	.
.	.	2A	-co	.	.	2f#X	-co,
1r	.	1G	che	1d	-co,	2r	.
.	.	.	.	.	.	[2b-	<Ec-
=14	=14	=14	=14	=14	=14	=14	=14
1F	<Ec-	1c	pur	2r	.	2b-]	.
.	.	.	.	1f	<Ec-	1a	-co>
2C	-co>	2r	.	.	.	.	.
2C	che	2c	che	2e	-co>	2g	che
=15	=15	=15	=15	=15	=15	=15	=15
2D	pur	2A	pur	2d	che	2f#X	pur
2GG	la	2B-	la	4d	pur	2g	la
.	.	.	.	4e	la	.	.
1AA	ten-	1A	ten-	4c#X	ten-	1e	ten-
.	.	.	.	2d	.	.	.
.	.	.	.	4c#X	.	.	.
=16	=16	=16	=16	=16	=16	=16	=16
2D	-go	2A	-go	1d	-go	1f#X	-go
2D	Nel-	2d	Nel-	.	.	.	.
2E	-le	1c	-le	1r	.	1r	.
2F#X	mie	.	.	.	.	.	.
=17	=17	=17	=17	=17	=17	=17	=17
1G	man,	1B	mie	2r	.	1dd	Nel-
.	.	.	.	2d	Nel-	.	.
1r	.	1A	man,	2e	-le	1cc	-le
.	.	.	.	2f#X	mie	.	.
=18	=18	=18	=18	=18	=18	=18	=18
2r	.	2r	.	2g	man,	1b	mie
2BB	Nel-	2D	<Nel-	1g	<Nel-	.	.
2C	-le	2E	-le	.	.	2.a	man,
2D	mie	2F	mie	2fni	-le	.	.
.	.	.	.	.	.	4dd	<Nel-
=19	=19	=19	=19	=19	=19	=19	=19
2E	man	2G	man>	2e	mie	4cc	-le
.	.	.	.	.	.	4b	mie
2C#X	ri-	2.A	ri-	2e	man>	2a	man>
2.D	-stret-	.	.	4f	ri-	4a	ri-
.	.	2B-	-stret-	2d	-stret-	2g	-stret-
4D	-ta	4A	-ta	4d	-ta	4f#X	-ta
=20	=20	=20	=20	=20	=20	=20	=20
0r	.	1r	.	4r	.	4r	.
.	.	.	.	4A	N&eacute;	4e	N&eacute;
.	.	.	.	4d	for-	4fni	for-
.	.	.	.	4c	-z'od	4g	-z'od
.	.	2r	.	2f	ar-	2a	ar-
.	.	4r	.	4e	-te,	4b	-te
.	.	4E	N&eacute;	4e	<N&eacute;	[4cc	per
=21	=21	=21	=21	=21	=21	=21	=21
1r	.	4F	for-	4A	for-	4cc]	.
.	.	4G	-z'od	4B	-z'od	4b	fug-
.	.	2A	ar-	2c	ar-	8aL	-gir
.	.	.	.	.	.	8g	.
.	.	.	.	.	.	8e	.
.	.	.	.	.	.	8fJ	.
4r	.	4B	-te	4d	-te>	4g	.
4AA	N&eacute;	2c	per	2e	per	4a	le
4C	for-	.	.	.	.	2a	gio-
4D	-z'od	4A	fug-	4f	fug-	.	.
=22	=22	=22	=22	=22	=22	=22	=22
2E	ar-	4c	-gir	4e	-gir	2g	-va,
.	.	4B	le	4e	le	.	.
4F#X	-te	4A	gio-	2d	gio-	4r	.
2G	per	4G	-va,	.	.	2b	per
.	.	4g	per	4d	-va,	.	.
4A	fug-	4e	fug-	4a	fug-	4cc#X	fug-
4D	-gir	4f	-gir	4a	-gir	4dd	-gir
4AA	le	4e	le	4a	le	4ccni	le
=23	=23	=23	=23	=23	=23	=23	=23
2E	gio-	2e	gio-	2g#X	gio-	2b	gio-
2AA	-va.	2e	-va.	2a	-va.	2a	-va.
[1D	Giu-	[1f	Giu-	2r	.	1r	.
.	.	.	.	[2d	Giu-	.	.
=24	=24	=24	=24	=24	=24	=24	=24
2D]	.	2f]	.	2d]	.	1.a	Giu-
2C#X	-st'&egrave;	2e	-st'&egrave;	2e	-st'&egrave;	.	.
2D	ben	2d	ben	2f#X	ben	.	.
2GG	ch'io	2d	ch'io	2g	ch'io	2b	-st'&egrave;
=25	=25	=25	=25	=25	=25	=25	=25
2C	ne	2e	ne	2g	ne	2cc	ben
1FF	pren-	2.f	pren-	1a	pren-	2.cc	ch'io
.	.	4f	-da, A-	.	.	4cc	ne
2GG	-da, A-	2d	-mor,	2g	-da, A-	4b-	pren-
.	.	.	.	.	.	4b-i	-da, A-
=26	=26	=26	=26	=26	=26	=26	=26
4AA	-mor,	4r	.	4e	-mor,	4a	-mor
4A	qual-	4c	qual-	4e	qual-	4a	qual-
4D	-che	4A	-che	4d	-che	4f#X	-che
4D	ven-	4A	ven-	4d	ven-	4f#i	ven-
2G	-det-	2B-	-det-	2d	-det-	2g	-det-
2C	-ta,	2G	-ta,	2c	-ta,	4e	-ta,
.	.	.	.	.	.	4cc	qual-
=27	=27	=27	=27	=27	=27	=27	=27
4r	.	4d	ven-	4r	.	4a	-che
4D	qual-	2d	-det-	4f	qual-	4a	ven-
4G	-che	.	.	4d	-che	2b-	-det-
4G	ven-	2G	-ta,	4d	ven-	.	.
2C	-det-	.	.	2e	-det-	2g	-ta,
.	.	4c	qual-	.	.	.	.
2F	-ta,	4A	-che	4c	-ta,	4r	.
.	.	4A	ven-	4c	<qual-	4a	<qual-
=28	=28	=28	=28	=28	=28	=28	=28
1r	.	4.B-	-det-	8d	-che	4f	-che
.	.	.	.	8e	ven-	.	.
.	.	.	.	2f	-det-	4f	ven-
.	.	8AL	.	.	.	.	.
.	.	8G	.	.	.	2b-	-det-
.	.	8FJ	.	.	.	.	.
.	.	4G	.	4e	.	.	.
2r	.	2F	-ta,	2f	-ta,>	2a	-ta,>
2F	E	2A	E	2c	E	2f	E
=29	=29	=29	=29	=29	=29	=29	=29
2BB-	se	2B-	se	2d	se	2f	se
2.E-	pia-	2.G	pia-	2.B-	pia-	2.e-	pia-
4E-i	-ghe	4G	-ghe	4B-i	-ghe	4e-i	-ghe
2C	mi	2G	mi	2c	mi	2e-i	mi
=30	=30	=30	=30	=30	=30	=30	=30
1D	di&egrave;,	1F#X	di&egrave;,	1A	di&egrave;,	1d	di&egrave;,
2r	.	2r	.	2r	.	2r	.
2AA	<E	2E	<E	2A	<E	2c#X	<E
=31	=31	=31	=31	=31	=31	=31	=31
2AA	se	2E	se	2A	se	2c#i	se
2.D	pia-	2.F#X	pia-	2A	pia-	2.d	pia-
.	.	.	.	4B	-ghe	.	.
4D	-ghe	4F#i	-ghe	4B	mi	4d	-ghe
2C	mi	2G	mi	[2c	di&egrave;,>	2e	mi
=32	=32	=32	=32	=32	=32	=32	=32
2F	di&egrave;,>	4A	di&egrave;,>	2c]	.	2f	di&egrave;,
.	.	2A	bac-	.	.	.	.
2D	bac-	.	.	2f	bac-	2a	bac-
.	.	2d	-ci	.	.	.	.
4G	-ci	.	.	4g	-ci	4b	-ci
4B	le	4d	le	4g	le	4dd	le
2A	ren-	2e	ren-	2a	ren-	2cc#X	ren-
=33	=33	=33	=33	=33	=33	=33	=33
2D	-da,	2f	-da,	2a	-da,	2dd	-da,
2D	bac-	2f	bac-	4r	.	2a	bac-
.	.	.	.	4d	bac-	.	.
4C#X	-ci	4e	-ci	4e	-ci	4a	-ci
4D	le	4d	le	4f	le	4a	le
2AA	ren-	2c#X	ren-	2e	ren-	2a	ren-
=34	=34	=34	=34	=34	=34	=34	=34
0Dl	-da.	0dl	-da.	0f#Xl	-da.	0al	-da.
==	==	==	==	==	==	==	==
*-	*-	*-	*-	*-	*-	*-	*-
!!!system-decoration: [*]
!!!RDF**kern: i = editorial accidental
!!!RDF**kern: l = terminal long
!!!ENC: Emiliano Ricciardi
!!!END: 2013
!!!EED: Ricciardi, Emiliano
!!!EEV: 2016/02/13
!!!YEC: Copyright 2013 Emiliano Ricciardi, All Rights Reserved
!!!ONB: Translated from MusicXML on 2013/08/19 and edited by Craig Stuart Sapp
!!@@BEGIN:	VERSEDATA
!!@SOLERTI:	47
!!@CATALOGNUM:	Trm0047
!!@LAST_MODIFIED: 2020/07/12
!!@TITLE:		Non è questa la mano
!!@GENRE:		madrigale/ballata
!!@MANUSRC:	Amz, Brn, C, E<sub>1</sub>, F<sub>2</sub>, I<sub>3</sub>, M<sub>7</sub>, P<sub>4</sub>, Tr<sub>2</sub>, V<sub>8</sub>, V<sub>13/E1</sub>
!!@PRINTSRC:	8, 9, 11, 12, 13, 15, 20, 24, 29, 33, 67, 145
!!@@BEGIN:	VERSES
!!@ABOUTIT:	Ballando con la sua donna desidera di fare amorosa vendetta de la sua mano ch’egli teneva stretta.
!!@ABOUTEN:	Dancing with his lady, he desires to take amorous revenge on the hand he held tight.
!!@EDITOR:	Solerti, Angelo
!!@EDITION_TITLE: Le Rime di Torquato Tasso
!!@EDITION_LOC:	Bologna
!!@EDITION_PUB:	Romagnoli-Dall’Acqua
!!@EDITION_DATE:  1898-1902
!!@EDITION_VOL:	2
!!@EDITION_PAGE:  71
!!@TRANSLATOR:	Emiliano Ricciardi and Amyrose McCue Gill
!!@VERSE:
!!	Non è questa la mano
!!	Che tante e sì mortali
!!	Avventò nel mio cor fiammelle e strali?
!!	Ecco che pur si trova
!!	Fra le mie man ristretta
!!	Né forza od arte per fuggir le giova,
!!	Né tien face o saetta
!!	Che da me la difenda.
!!	Giusto è ben ch'io ne prenda,
!!	Amor, qualche vendetta,
!!	E se piaghe mi diè baci le renda.
!!@TVERSE:
!!	Is this not the hand
!!	That so many and truly fatal
!!	Flames and arrows hurled at my heart?
!!	Yet here it is, to be found
!!	Held fast between my hands,
!!	Neither strength nor craft can help it escape,
!!	Nor does it hold a torch or a spear
!!	To defend her against me.
!!	It is just that I take,
!!	Love, some kind of revenge,
!!	And if she gave me wounds, may I give her kisses.
!!@@END:		VERSES
!!@OTHER_CRIT_ED:   Torquato Tasso, <i>Rime d’amore (secondo il codice
!!		Chigiano L VIII 302)</i>, eds. Franco Gavazzeni and
!!		Vercingetorige Martignone, vol. 4 of <i>Edizione
!!		Nazionale delle opere di Torquato Tasso</i>
!!		(Alessandria: Edizioni Dell’Orso, 2004), 34.
!!@ATTRIBUTION_ABOUT:	Secure
!!		<br>
!!		Among other authoritative sources (see Literary
!!		Sources), this poem appears in the autograph Chigiano
!!		L.VIII.302 (Biblioteca Vaticana, Rome), compiled
!!		around 1584&ndash;85.
!!@DATING:	Before 1579
!!		<br>
!!		Although Solerti dates this poem to the early 1560s,
!!		there is no hard evidence to support this dating.
!!		The earliest written testimony of “Non è questa la
!!		mano” is Benedetto Pallavicino’s musical setting,
!!		published in 1579 (Trm0047a).
!!@DEDICATEE:	Bendidio, Lucrezia
!!@DEDICATEE_INFO:
!!		In the autograph Chigiano L.VIII.302 (Biblioteca
!!		Vaticana, Rome), this poem appears among those
!!		addressed to Tasso’s <i>primo amore</i> (first love),
!!		identified as the Ferrarese singer and noblewoman
!!		<a target="_new" href="http://www.treccani.it/enciclopedia/lucrezia-bendidio_%28Dizionario-Biografico%29">Lucrezia Bendidio</a>
!!		(1547&ndash;after 1584). The poem itself, however, does not mention Lucrezia.
!!		As [Anthony Newcomb] {footnote: Anthony Newcomb, “The Ballata and the ‘Free’ Madrigal in
!!		the Second Half of the Sixteenth Century,” Journal
!!		of the American Musicological Society, vol. 63, no.
!!		3 (Fall 2010): 433&ndash;34.} has pointed out, this poem belongs to the
!!		hybrid genre of the ballata-madrigale.  More
!!		specifically, the opening tercet recalls the
!!		<i>ripresa</i> of a ballata, the central section
!!		the <i>piedi</i> (two pairs of <i>settenarii</i>
!!		separated by an <i>endecasillabo</i>), and the final
!!		tercet the <i>volta</i>. The poem is extremely rich
!!		of references to <i>topoi</i> that resonated with
!!		the culture of the time, such as courtly dance and
!!		the female hand–the latter is especially common in
!!		late sixteenth-century lyric poetry (see <i>Rime</i>
!!		315, 571, and 862). Counting 23 settings (see Musical
!!		Settings), “Non è questa la mano” is second only
!!		to “Ardi e gela a tua voglia” (<i>Rime</i> 418),
!!		whose musical fortune, however, is tied to that of
!!		Guarini’s <i>proposta</i> “Ardo sì, ma non t’amo.”
!!@@END:		VERSEDATA
!!@@BEGIN:	SETTING
!!@CATALOGNUM:	Trm0047a
!!@RIMETITLE:	Non è questa la mano
!!@SOLERTI:	47
!!@COMPOSER:	Pallavicino, Benedetto
!!@PRINCEPSTITLE:	Il primo libro de madrigali a quattro voci
!!@PRINCEPSLOC:	Venetia
!!@NORMLOC:	Venice
!!@NORMPUB:	Angelo Gardano
!!@NORMPUBSHORT:	Gardano
!!@PRINCEPSPUB:	Gardano
!!@PRINCEPSYEAR:	1579
!!@PRINCEPSRISM:	P 772
!!@REPRINTS:	
!!@OVOICES:	4
!!@EXTANTVOICES:	4
!!@PARTBOOKS:	
!!@EXTPARTBOOKS:	
!!@OCLEFS:	C1,C3,C4,F4
!!@OMENSURATION:	Cut-C
!!@OKEYSIG:	-
!!@FINAL:	D
!!@TIMPEDITOR:	Ricciardi, Emiliano
!!@NOTE:		
!!@@END:		SETTING
